X: 2110
T: Çıkalım Sayd-ı Şikâre
C: Tanburî Mustafa Çavuş
O: Turkey
F: http://compmusic.upf.edu/node/140
N: beyati--sarki--ciftesofyan--cikalim_sayd_u--tanburi_mustafa_cavus
N: makam= beyati
N: form= sarki
N: usul= ciftesofyan = 9/8
M: 9/8
L: 1/16
K: C _2/4B   
Q: 1/4=216
%%MIDI tuningsystem comma53
fefg e3d dcdf edcB AG | AB cdeg feed dcd2 e2f2  | 
w:  ARANAĞME  |   | 
fefg e3d dcdf edcB AG | AB cde2 dccB BAA2 {B}AGBc  | 
w:   |   | 
d2z2 d2d2 d4 A4 B2 | G4B4c4d4{f}ed  | \
w:  *  Çı ka lım  sayd_  |  ı  şi kâ re    | 
{e}d2z2 d2d2 d4 A4 B2 | G4B4c4d4{f}ed  | 
w:  *  *  Çı ka lım  sayd_  |  ı  şi kâ re    | 
{e}d2z2 B2c2 d2e2 {g}f2e2 d2 | c2 {d}cBc2 d2c2 B2B4BA  | \
w:  *  *  Ça ta rız  *  *  bel  |  ki  *  *  *  *  *  o  *  yâ  | 
A6G2 B2c2 d4 {f}ed | 
w:  re  a man  a man    | 
{e}d2 z2B2 c2d2 e2{g}f2 e2d2  | c2{d}cB c2d2 c2B2 B4 BA | \
w:  *  *  Ça ta rız  *  *  bel  |  ki  *  *  *  *  *  o  *  yâ  | 
A6 f2ef gefe fgeg  | 
w:  re   SAZ  | 
f2z2 f4 f2e2 a2g2 f2 | f2 e2e2 d2d4e4dc  | \
w:  *  Geç mez  *  gö nül   |  dil *  be *  rin den    | 
{d}c4 f4 f2e2 a2g2 f2 | 
w:  *  *  Geç mez  *  gö nül   | 
f2 e2e2 d2d4e4dc  | {d}c4 B2c2 d2e2 f2e2 d2 | \
w:  dil *  be *  rin den    |  *  *  Do ku nur  *  zülf_  | 
c2 {d}cBc2 d2c2 B2B4A2  | 
w:  ü  *  *  *  *  *  ni *  gâ  | 
A6G2 B2c2 d4 {f}ed | d4B2 c2d2 e2f2 e2d2  | \
w:  re  a man  a man    |  *  Do ku nur  *  zülf_  | 
c2{d}cB c2d2 c2B2 B4 A2 | 
w:  ü  *  *  *  *  *  ni *  gâ  | 
A6 c2B2 c2dc dABc  | d4 d4 d4 g2g4 | \
w:  re   SAZ  |  *  Hüs nün  gö ren   | 
d4d2 c2e3dd4.c.e  | 
w:  se ni  *  is *  ter   SAZ  | 
d4 d4 d4 g2g4 | d4d2 c2e3dd4z2  | f3e d2e2 d2e2 e2d2 c2 | 
w:  *  Aç  yü zü nü   |  per çem  *  gös *  ter    |  Gel  *  *  *  *  *  gü lüm   | 
d2 e4 eddc cBc4Bd  | c4 B2c2 d2e2 {g}f2e2 d2 | \
w:  gel  *  a *  man  *  a *  man   SAZ  |  *  Ya nı yor  *  *  â  | 
c2 {d}cBc2 d2c2 B2B2 B2A2  | 
w:  şık_ *  *  *  *  ı  bî *  ça  | 
A6G2 B2c2 d4 {f}ed | {e}d2 z2B2 c2d2 e2{g}f2 e2d2  | \
w:  re  a man  a man    |  *  *  Ta rab ya *  *  lı   | 
c2{d}cB c2d2 c2B2 B4 BA | 
w:  bir  *  *  *  ci *  *  *  va  | 
{B}A6 efed cBAB cdeg  | fefg e3d dcdf edcB AG | 
w:  *  ne   SAZ  |  ARANAĞME  | 
AB cdeg feed dcd2 e2f2  | fefg e3d dcdf edcB AG | 
w:   |   | 
AB cde2 dccB BAA2 {B}AGBc  | d2z2 d2d2 d4 A4 B2 | 
w:   |  *  Çı ka lım  sayd_  | 
G4B4c4d4{f}ed  | {e}d2z2 d2d2 d4 A4 B2 | \
w:  ı  şi kâ re    |  *  *  Çı ka lım  sayd_  | 
G4B4c4d4{f}ed  | {e}d2z2 B2c2 d2e2 {g}f2e2 d2 | 
w:  ı  şi kâ re    |  *  *  Ça ta rız  *  *  bel  | 
c2 {d}cBc2 d2c2 B2B4BA  | A6G2 B2c2 d4 {f}ed | \
w:  ki  *  *  *  *  *  o  *  yâ  |  re  a man  a man    | 
{e}d2 z2B2 c2d2 e2{g}f2 e2d2  | 
w:  *  *  Ça ta rız  *  *  bel  | 
c2{d}cB c2d2 c2B2 B4 BA | A6 f2ef gefe fgeg  | 
w:  ki  *  *  *  *  *  o  *  yâ  |  re   SAZ  | 
f2z2 f4 f2e2 a2g2 f2 | f2 e2e2 d2d4e4dc  | \
w:  *  Geç mez  *  gö nül   |  dil *  be *  rin den    | 
{d}c4 f4 f2e2 a2g2 f2 | 
w:  *  *  Geç mez  *  gö nül   | 
f2 e2e2 d2d4e4dc  | {d}c4 B2c2 d2e2 f2e2 d2 | \
w:  dil *  be *  rin den    |  *  *  Do ku nur  *  zülf_  | 
c2 {d}cBc2 d2c2 B2B4A2  | 
w:  ü  *  *  *  *  *  ni *  gâ  | 
A6G2 B2c2 d4 {f}ed | d4B2 c2d2 e2f2 e2d2  | \
w:  re  a man  a man    |  *  Do ku nur  *  zülf_  | 
c2{d}cB c2d2 c2B2 B4 A2 | 
w:  ü  *  *  *  *  *  ni *  gâ  | 
A6 c2B2 c2dc dABc  | d4 d4 d4 g2g4 | \
w:  re   SAZ  |  *  Hüs nün  gö ren   | 
d4d2 c2e3dd4.c.e  | 
w:  se ni  *  is *  ter   SAZ  | 
d4 d4 d4 g2g4 | d4d2 c2e3dd4z2  | f3e d2e2 d2e2 e2d2 c2 | 
w:  *  Aç  yü zü nü   |  per çem  *  gös *  ter    |  Gel  *  *  *  *  *  gü lüm   | 
d2 e4 eddc cBc4Bd  | c4 B2c2 d2e2 {g}f2e2 d2 | \
w:  gel  *  a *  man  *  a *  man   SAZ  |  *  Ya nı yor  *  *  â  | 
c2 {d}cBc2 d2c2 B2B2 B2A2  | 
w:  şık_ *  *  *  *  ı  bî *  ça  | 
A6G2 B2c2 d4 {f}ed | {e}d2 z2B2 c2d2 e2{g}f2 e2d2  | \
w:  re  a man  a man    |  *  *  Ta rab ya *  *  lı   | 
c2{d}cB c2d2 c2B2 B4 BA | 
w:  bir  *  *  *  ci *  *  *  va  | 
{B}A6 |
w:  *  ne    | 


